X: 2
T: Missa [sine nomine] &mdash; Gloria
C: Anonymous
%%abc-version 2.0
%%abcx-abcm2ps-target-version 5.9.1 (29 Sep 2008)
%%abc-creator hum2abc beta
%%abcx-conversion-date 2022/03/06 13:05:53
%%abc-copyright Copyright 2016, Kolb, Paul
%%abc-edited-by Zybina, Karina
%%humdrum-veritas 246766180
%%humdrum-veritas-data 3464567520
%%linebreak <none>
%%barnumbers 0
L: 1/4
M: 2/2
N: Derived from Ano0207b-Missa_sine_nomine_Gloria.krn
%%staves [1 2 3 4]
V: 1 clef=treble
V: 2 clef=treble-8
V: 3 clef=treble-8
V: 4 clef=bass
K: F
[V:1] G2GG/F/ | 
[V:2] d2de | 
[V:3] G2Bc- | 
[V:4] G,2G,C,- | 
[V:1] E/D/G2^F | 
[V:2] c2df | 
[V:3] c/B/GA2 | 
[V:4] C,/D,/E,D,2 | 
[V:1] GGBB | 
[V:2] egd2 | 
[V:3] GGGG | 
[V:4] E,E,G,G, | 
[V:1] A2AA | 
[V:2] f>ecA | 
[V:3] c2AF | 
[V:4] F,2F,F, | 
[V:1] AFG2 | 
[V:2] Ad2^c | 
[V:3] AAG2 | 
[V:4] F,D,E,2 | 
[V:1] F2zA | 
[V:2] d>cAA | 
[V:3] A2dd- | 
[V:4] D,2D,2 | 
[V:1] BBA2 | 
[V:2] GGFf- | 
[V:3] ddd2 | 
[V:4] B,,G,,D,2 | 
[V:1] AABA | 
[V:2] ffdf | 
[V:3] ccBd | 
[V:4] F,F,G,D, | 
[V:1] B2A2 | 
[V:2] d>ef2 | 
[V:3] d2d3/c/ | 
[V:4] G,2D,D, | 
[V:1] FG>FB- | 
[V:2] d_e2f- | 
[V:3] Azcd | 
[V:4] D,C,2B,, | 
[V:1] BABB | 
[V:2] ffdd | 
[V:3] ccBB | 
[V:4] F,2G,2 | 
[V:1] ABc3/B/ | 
[V:2] f2ga- | 
[V:3] cd_ec | 
[V:4] F,D,C,F,- | 
[V:1] A/G/B2A/G/ | 
[V:2] af2_e | 
[V:3] d3c/B/ | 
[V:4] F,/_E,/D,/C,/B,,C, | 
[V:1] FG2^F | 
[V:2] dcd2 | 
[V:3] AGA2 | 
[V:4] D,_E,D,2 | 
[V:1] G2F3/F/ | 
[V:2] B2z2 | 
[V:3] G2B3/B/ | 
[V:4] _E,2B,,3/B,,/ | 
[V:1] FG>FF | 
[V:2] z4 | 
[V:3] BB>BB | 
[V:4] B,,_E,>D,D, | 
[V:1] G2D2 | 
[V:2] z4 | 
[V:3] B2B2 | 
[V:4] _E,2B,,2 | 
[V:1] zcdc | 
[V:2] f3f | 
[V:3] zFBA | 
[V:4] z4 | 
[V:1] dc/B/A2 | 
[V:2] f2f2 | 
[V:3] BA/G/F2 | 
[V:4] z4 | 
[V:1] zABA | 
[V:2] f2dd | 
[V:3] z4 | 
[V:4] zD,G,F, | 
[V:1] BA/G/F2 | 
[V:2] d2d2 | 
[V:3] zBAA | 
[V:4] G,2D,2 | 
[V:1] z4 | 
[V:2] z4 | 
[V:3] G>F E/D/B- | 
[V:4] B,,C,>B,,D,- | 
[V:1] z4 | 
[V:2] zdcc | 
[V:3] B/A/G2^F | 
[V:4] D,/C,/B,,A,,2 | 
[V:1] zBAA | 
[V:2] B2F2 | 
[V:3] G2z2 | 
[V:4] G,,2z2 | 
[V:1] G2D2 | 
[V:2] zB>AG/F/ | 
[V:3] z4 | 
[V:4] z4 | 
[V:1] zB>AG/F/ | 
[V:2] G2d_e | 
[V:3] z4 | 
[V:4] z4 | 
[V:1] _ED2G- | 
[V:2] cdG2 | 
[V:3] z2zB | 
[V:4] z4 | 
[V:1] G^FG2 | 
[V:2] D2z2 | 
[V:3] A2G2 | 
[V:4] z2zB, | 
[V:1] z4 | 
[V:2] z4 | 
[V:3] DFGB | 
[V:4] A,2G,2 | 
[V:1] z4 | 
[V:2] z4 | 
[V:3] Ad>cd- | 
[V:4] D,2G,F,- | 
[V:1] z4 | 
[V:2] z4 | 
[V:3] d/c/B2A | 
[V:4] F,_E,/D,/C,C, | 
[V:1] z4 | 
[V:2] zddd | 
[V:3] B2z2 | 
[V:4] B,,2F,D, | 
[V:1] z4 | 
[V:2] c/B/A/G/FB- | 
[V:3] z2zd | 
[V:4] _E,F,D,B,, | 
[V:1] z2zB | 
[V:2] BAB2 | 
[V:3] ccBd | 
[V:4] F,2z2 | 
[V:1] BBA/G/F/_E/ | 
[V:2] z4 | 
[V:3] d2cd- | 
[V:4] z4 | 
[V:1] DG2^F | 
[V:2] z4 | 
[V:3] dc/B/AA | 
[V:4] z4 | 
[V:1] GB>AG/F/ | 
[V:2] z2d2 | 
[V:3] G4 | 
[V:4] z4 | 
[V:1] G2F2 | 
[V:2] B2d2- | 
[V:3] G2A2 | 
[V:4] _E,2D,2 | 
[V:1] G4 | 
[V:2] d2e2 | 
[V:3] B4 | 
[V:4] G,4 | 
[V:1] A4 | 
[V:2] f4 | 
[V:3] A4 | 
[V:4] F,4 | 
[V:1] z4 | 
[V:2] e>eef | 
[V:3] z4 | 
[V:4] G,>G,G,A, | 
[V:1] z4 | 
[V:2] dg>fe/d/ | 
[V:3] z4 | 
[V:4] B,>G,B,2 | 
[V:1] z2A2 | 
[V:2] c2z2 | 
[V:3] z2c2 | 
[V:4] A,2z2 | 
[V:1] ABGc- | 
[V:2] z4 | 
[V:3] d>Bc2 | 
[V:4] z4 | 
[V:1] c/B/A/G/F2 | 
[V:2] z2A2 | 
[V:3] _e2d2 | 
[V:4] C,2D,2 | 
[V:1] D/E/F/G/AB | 
[V:2] Bc2f- | 
[V:3] BAcd- | 
[V:4] G,F,2D, | 
[V:1] AG2^F | 
[V:2] f/e/d3 | 
[V:3] dBA2 | 
[V:4] F,G,D,2 | 
[V:1] G4 ||  
[V:2] d4 ||  
[V:3] G4 ||  
[V:4] G,,4 ||  
[V:1] [M:2/2]z2A2 | 
[V:2] [M:2/2]A2A2 | 
[V:3] [M:2/2]d2d2 | 
[V:4] [M:2/2]D,2D,2 | 
[V:1] A2GG | 
[V:2] AAc2 | 
[V:3] cc_e2 | 
[V:4] F,F,C,2 | 
[V:1] B2A2 | 
[V:2] B2c2 | 
[V:3] d2c2 | 
[V:4] G,,2A,,2 | 
[V:1] G2FB | 
[V:2] c>B A/G/F | 
[V:3] _e2d2 | 
[V:4] C,2D,2 | 
[V:1] AG2F | 
[V:2] fdd3/d/ | 
[V:3] cB2A | 
[V:4] F,G,2D, | 
[V:1] G2A2 | 
[V:2] d>ef2- | 
[V:3] B2A2- | 
[V:4] G,2F,2- | 
[V:1] zAB2 | 
[V:2] f2zd | 
[V:3] A2z2 | 
[V:4] F,2z2 | 
[V:1] AAc2 | 
[V:2] f2ee | 
[V:3] z4 | 
[V:4] z4 | 
[V:1] B2AB- | 
[V:2] g2fd- | 
[V:3] z4 | 
[V:4] z4 | 
[V:1] BA/G/F2 | 
[V:2] dc/B/A2 | 
[V:3] z4 | 
[V:4] z4 | 
[V:1] F2FF- | 
[V:2] d2dd- | 
[V:3] A2AA- | 
[V:4] D,2D,D,- | 
[V:1] FFFG- | 
[V:2] dccc- | 
[V:3] AA2G | 
[V:4] D,F,F,C,- | 
[V:1] GFE2 | 
[V:2] cBc2 | 
[V:3] EFG2 | 
[V:4] C,D,C,2 | 
[V:1] FD2^C | 
[V:2] FGA2 | 
[V:3] D2E2 | 
[V:4] B,,2A,,2 | 
[V:1] D4 | 
[V:2] F2z2 | 
[V:3] D4 | 
[V:4] B,,2zG,, | 
[V:1] z4 | 
[V:2] z4 | 
[V:3] D2DG- | 
[V:4] B,,2B,,B,, | 
[V:1] z2D2 | 
[V:2] z4 | 
[V:3] G^FG2 | 
[V:4] A,,A,,G,,2 | 
[V:1] DG2^F | 
[V:2] z4 | 
[V:3] BBA2 | 
[V:4] G,2D,2 | 
[V:1] G2BB | 
[V:2] z2zg- | 
[V:3] G2z2 | 
[V:4] z4 | 
[V:1] A2G2 | 
[V:2] g^fg2 | 
[V:3] z4 | 
[V:4] z2zG,- | 
[V:1] z4 | 
[V:2] df>_ed/c/ | 
[V:3] z4 | 
[V:4] G,D,F,2 | 
[V:1] z4 | 
[V:2] Bd2c/B/ | 
[V:3] z4 | 
[V:4] G,2D,2 | 
[V:1] z4 | 
[V:2] c/B/A/G/FG- | 
[V:3] z4 | 
[V:4] _E,2D,E,- | 
[V:1] z4 | 
[V:2] G/F/B2A | 
[V:3] z4 | 
[V:4] E,/D,/C,/B,,/C,2 | 
[V:1] zB>BB | 
[V:2] BB>BB | 
[V:3] zd>dd | 
[V:4] B,,G,,>G,,G,, | 
[V:1] BB2B | 
[V:2] GG2G | 
[V:3] dd2d | 
[V:4] G,,G,,2G,, | 
[V:1] B2A2 | 
[V:2] G2F2 | 
[V:3] d2d2 | 
[V:4] G,,2D,2 | 
[V:1] A2A2- | 
[V:2] z4 | 
[V:3] zcc2- | 
[V:4] z4 | 
[V:1] AAB3/A/ | 
[V:2] z4 | 
[V:3] ccd2 | 
[V:4] z4 | 
[V:1] G>F E/D/G- | 
[V:2] z4 | 
[V:3] Bc>Bc- | 
[V:4] z4 | 
[V:1] GF2E | 
[V:2] z4 | 
[V:3] cAG2 | 
[V:4] z4 | 
[V:1] F2z2 | 
[V:2] z4 | 
[V:3] F2z2 | 
[V:4] z2D,2 | 
[V:1] z4 | 
[V:2] d2f2 | 
[V:3] z4 | 
[V:4] F,>_E, D,/C,/D,- | 
[V:1] z4 | 
[V:2] d_ef3/_e/ | 
[V:3] z4 | 
[V:4] D,C,B,,D,- | 
[V:1] z4 | 
[V:2] d/c/d2B | 
[V:3] z4 | 
[V:4] D,/_E,<F,D,/G,- | 
[V:1] z4 | 
[V:2] A2G2 | 
[V:3] z4 | 
[V:4] G,^F,G,2 | 
[V:1] G2F2 | 
[V:2] c2d2 | 
[V:3] G2A2 | 
[V:4] _E,2D,2 | 
[V:1] G4 | 
[V:2] _e4 | 
[V:3] c4 | 
[V:4] C,4 | 
[V:1] F3F | 
[V:2] d3d | 
[V:3] A3A | 
[V:4] D,3D, | 
[V:1] FFG3/G/ | 
[V:2] ddd3/e/ | 
[V:3] AAB3/B/ | 
[V:4] D,D,G,3/G,/ | 
[V:1] A3A | 
[V:2] f3f | 
[V:3] c3c | 
[V:4] F,3F, | 
[V:1] A2AA | 
[V:2] f2ff | 
[V:3] c2cc | 
[V:4] F,2F,F, | 
[V:1] BAB2 | 
[V:2] dfg2 | 
[V:3] Bcd2 | 
[V:4] G,A,G,2 | 
[V:1] AG2F/E/ | 
[V:2] e2cg- | 
[V:3] c2zc | 
[V:4] C,2C,/D,/E,/F,/ | 
[V:1] DB2A/G/ | 
[V:2] gf/e/gd- | 
[V:3] Bd2c/B/ | 
[V:4] G,2G,,/A,,/B,,/C,/ | 
[V:1] FG2^F | 
[V:2] dcd2 | 
[V:3] AGA2 | 
[V:4] D,_E,D,2 | 
[V:1] G4 |]  
[V:2] d4 |]  
[V:3] G4 |]  
[V:4] G,,4 |]  


